<?xml version="1.0" encoding="UTF-8"?>
<map version="1.4" tiledversion="1.4.3" orientation="orthogonal" renderorder="right-down" width="40" height="40" tilewidth="64" tileheight="64" infinite="0" nextlayerid="13" nextobjectid="299">
 <tileset firstgid="1" source="../set/map3.tsx"/>
 <tileset firstgid="13" source="../set/map1.tsx"/>
 <layer id="1" name="map" width="40" height="40">
  <data encoding="csv">
0,0,0,0,0,0,0,0,0,0,0,0,0,0,0,0,0,0,13,14,15,0,0,0,0,0,0,0,0,0,0,0,0,0,0,0,0,0,0,0,
0,13,14,14,14,14,14,14,14,14,14,14,14,14,14,14,14,14,22,26,21,14,14,14,14,14,14,14,14,14,14,14,14,14,14,14,14,14,15,0,
0,18,26,26,26,26,26,26,26,26,26,26,26,26,26,26,26,26,26,26,26,26,26,26,26,26,26,26,26,26,26,26,26,26,26,26,26,26,20,0,
0,18,26,26,26,26,26,26,26,26,26,26,26,26,26,26,26,26,26,26,26,26,26,26,26,26,26,26,26,26,26,26,26,26,26,26,26,26,20,0,
0,18,26,26,13,14,14,14,14,14,15,26,26,26,26,13,14,14,14,14,14,14,14,14,14,14,14,14,14,14,14,14,14,14,15,26,26,26,20,0,
0,18,26,26,18,19,19,19,19,19,20,26,26,26,26,18,19,19,19,19,19,19,19,19,19,19,19,19,19,19,19,19,19,19,20,26,26,26,20,0,
0,18,26,26,18,19,19,19,19,19,20,26,26,26,26,23,24,24,24,24,24,24,24,24,24,24,24,24,24,24,24,24,17,19,20,26,26,26,20,0,
0,18,26,26,18,19,18,19,19,19,20,26,26,26,26,18,19,19,19,19,19,19,19,19,19,19,19,19,19,19,19,19,18,19,20,26,26,26,20,0,
0,18,26,26,18,19,18,19,19,19,20,26,26,26,26,23,24,24,24,24,24,24,24,24,24,24,24,24,24,24,17,19,18,19,20,26,26,26,20,0,
0,18,26,26,18,19,18,19,19,19,20,26,26,26,26,26,26,26,26,26,26,26,26,26,26,19,19,19,19,19,18,19,18,19,20,26,26,26,20,0,
0,18,26,26,23,19,23,24,24,24,25,26,26,26,26,26,26,26,26,26,13,14,15,26,26,20,19,19,19,19,18,19,18,19,20,26,26,26,20,0,
0,18,26,26,26,26,26,26,26,26,26,26,26,26,26,26,26,26,26,26,18,19,20,26,26,20,19,19,19,19,18,19,18,19,20,26,26,26,20,0,
0,18,26,26,26,26,26,26,26,26,26,26,26,26,19,19,19,26,26,26,18,19,20,26,26,20,19,19,19,19,18,19,18,19,20,26,26,26,20,0,
0,18,26,26,13,14,14,14,14,14,15,26,26,26,19,19,19,26,26,26,18,19,20,26,26,20,19,19,19,19,18,19,18,19,20,26,26,26,20,0,
0,18,26,26,18,19,19,19,19,19,20,26,26,26,19,19,19,26,26,26,18,19,20,26,26,21,14,14,14,14,22,19,18,19,20,26,26,26,20,0,
13,22,26,26,18,19,24,24,24,24,25,26,26,26,26,26,26,26,26,26,23,19,25,26,26,19,19,19,19,19,19,19,18,19,20,26,26,26,21,15,
18,26,26,26,18,19,19,19,19,19,19,26,26,26,26,26,26,26,26,26,26,26,26,26,26,21,14,14,14,14,14,14,22,19,20,26,26,26,26,20,
23,17,26,26,23,24,24,24,24,24,25,26,26,26,26,26,26,26,26,26,26,26,26,26,26,26,26,26,26,26,26,26,26,26,26,26,26,26,16,25,
0,18,26,26,26,26,26,26,26,26,26,26,26,26,26,26,26,26,26,26,26,26,26,26,26,26,26,26,26,26,26,26,26,26,26,26,26,26,20,0,
0,18,26,26,26,26,26,26,26,26,26,26,26,26,26,26,26,26,26,26,26,26,26,26,26,26,26,26,26,26,26,26,26,26,26,26,26,26,20,0,
0,18,26,26,26,26,26,26,26,26,26,26,26,26,26,26,26,26,26,26,26,26,26,26,26,26,26,26,26,26,26,26,26,26,26,26,26,26,20,0,
0,18,26,26,13,19,14,14,14,14,15,26,26,26,26,13,14,14,15,26,26,13,14,14,15,26,13,14,14,14,14,14,14,15,26,26,26,26,20,0,
0,18,26,26,18,19,19,19,19,19,20,26,26,26,26,18,19,19,20,26,26,18,19,19,20,26,18,19,19,19,19,19,19,20,26,26,26,26,20,0,
0,18,26,26,18,19,19,19,19,19,20,26,26,26,26,18,19,19,21,14,19,22,19,19,20,26,23,24,24,24,24,24,19,20,26,26,26,26,20,0,
0,18,26,26,18,19,19,19,19,19,20,26,26,26,26,18,19,19,19,19,19,19,19,19,20,26,18,19,19,19,19,19,19,20,26,26,26,26,20,0,
0,18,26,26,18,19,19,19,19,19,20,26,26,26,26,18,19,19,19,19,19,19,19,19,20,26,18,19,16,24,24,24,24,25,26,26,26,26,20,0,
0,18,26,26,23,24,24,24,24,24,25,26,26,26,26,23,24,24,24,24,24,24,24,24,25,26,18,19,20,26,26,26,26,26,26,26,26,26,20,0,
0,18,26,26,26,26,26,26,26,26,26,26,26,26,26,26,26,26,26,26,26,26,26,26,26,26,18,19,21,14,14,14,14,15,26,26,26,26,20,0,
0,18,26,26,26,26,26,26,26,26,26,26,26,26,26,26,26,26,26,26,26,26,26,26,26,26,18,19,19,19,19,19,19,19,26,26,26,26,20,0,
0,18,26,26,26,26,26,26,26,26,26,26,26,26,26,26,26,26,26,26,26,26,26,26,26,26,23,24,24,24,24,24,24,25,26,26,26,26,20,0,
0,18,26,26,13,14,14,14,14,14,14,14,14,14,14,14,14,14,14,15,26,26,26,26,26,26,26,26,26,26,26,26,26,26,26,26,26,26,20,0,
0,18,26,26,18,19,19,19,19,19,19,19,19,19,19,19,19,19,19,20,26,26,26,26,26,26,26,26,26,26,26,26,26,26,26,26,26,26,20,0,
0,18,26,26,23,24,24,24,24,24,24,24,24,24,24,24,24,24,19,20,26,26,26,26,26,13,14,14,14,14,14,14,14,15,26,26,26,26,20,0,
0,18,26,26,19,19,19,19,19,19,19,19,19,19,19,19,19,19,19,20,26,26,26,26,26,18,19,19,19,19,19,19,19,20,26,26,26,26,20,0,
0,18,26,26,23,24,24,24,24,24,24,24,24,24,24,24,24,24,24,25,26,26,26,26,26,23,24,24,24,24,24,24,24,25,26,26,26,26,20,0,
0,18,26,26,26,26,26,26,26,26,26,26,26,26,26,26,26,26,26,26,26,26,26,26,26,26,26,26,26,26,26,26,26,26,26,26,26,26,20,0,
0,18,26,26,26,26,26,26,26,26,26,26,26,26,26,26,26,26,26,26,26,26,26,26,26,26,26,26,26,26,26,26,26,26,26,26,26,26,20,0,
0,18,26,26,26,26,26,26,26,26,26,26,26,26,26,26,26,26,26,26,26,26,26,26,26,26,26,26,26,26,26,26,26,26,26,26,26,26,20,0,
0,23,24,24,24,24,24,24,24,24,24,24,24,24,24,24,24,24,17,26,16,24,24,24,24,24,24,24,24,24,24,24,24,24,24,24,24,24,25,0,
0,0,0,0,0,0,0,0,0,0,0,0,0,0,0,0,0,0,23,24,25,0,0,0,0,0,0,0,0,0,0,0,0,0,0,0,0,0,0,0
</data>
 </layer>
 <objectgroup id="2" name="obj">
  <object id="6" name="复活点" x="896" y="768" width="64" height="64">
   <properties>
    <property name="born" type="bool" value="true"/>
   </properties>
  </object>
  <object id="7" name="复活点" x="960" y="768" width="64" height="64">
   <properties>
    <property name="born" type="bool" value="true"/>
   </properties>
  </object>
  <object id="8" name="复活点" x="960" y="832" width="64" height="64">
   <properties>
    <property name="born" type="bool" value="true"/>
   </properties>
  </object>
  <object id="10" name="复活点" x="1024" y="832" width="64" height="64">
   <properties>
    <property name="born" type="bool" value="true"/>
   </properties>
  </object>
  <object id="11" name="复活点" x="1088" y="832" width="64" height="64" rotation="180">
   <properties>
    <property name="born" type="bool" value="true"/>
   </properties>
  </object>
  <object id="12" name="道具生成" x="960" y="1024" width="64" height="64">
   <properties>
    <property name="randomProps" type="bool" value="true"/>
   </properties>
  </object>
  <object id="13" name="怪物生成" x="1216" y="2432" width="64" height="64">
   <properties>
    <property name="monsterBorn" type="bool" value="true"/>
   </properties>
  </object>
  <object id="44" name="复活点" x="896" y="832" width="64" height="64">
   <properties>
    <property name="born" type="bool" value="true"/>
   </properties>
  </object>
  <object id="45" name="复活点" x="896" y="896" width="64" height="64">
   <properties>
    <property name="born" type="bool" value="true"/>
   </properties>
  </object>
  <object id="46" name="复活点" x="960" y="896" width="64" height="64">
   <properties>
    <property name="born" type="bool" value="true"/>
   </properties>
  </object>
  <object id="47" name="复活点" x="1024" y="896" width="64" height="64">
   <properties>
    <property name="born" type="bool" value="true"/>
   </properties>
  </object>
  <object id="48" name="道具生成" x="1152" y="896" width="64" height="64">
   <properties>
    <property name="randomProps" type="bool" value="true"/>
   </properties>
  </object>
  <object id="49" name="道具生成" x="832" y="640" width="64" height="64">
   <properties>
    <property name="randomProps" type="bool" value="true"/>
   </properties>
  </object>
  <object id="50" name="道具生成" x="768" y="896" width="64" height="64">
   <properties>
    <property name="randomProps" type="bool" value="true"/>
   </properties>
  </object>
  <object id="51" name="怪物生成" x="64" y="1024" width="64" height="64">
   <properties>
    <property name="monsterBorn" type="bool" value="true"/>
   </properties>
  </object>
  <object id="52" name="怪物生成" x="1216" y="64" width="64" height="64">
   <properties>
    <property name="monsterBorn" type="bool" value="true"/>
   </properties>
  </object>
  <object id="53" name="怪物生成" x="2432" y="1024" width="64" height="64">
   <properties>
    <property name="monsterBorn" type="bool" value="true"/>
   </properties>
  </object>
 </objectgroup>
 <objectgroup id="12" name="room10">
  <object id="276" x="1728" y="1408" width="64" height="64"/>
  <object id="277" name="bed" x="1792" y="1408" width="64" height="64"/>
  <object id="278" x="1856" y="1408" width="64" height="64"/>
  <object id="279" x="1920" y="1408" width="64" height="64"/>
  <object id="280" x="1984" y="1408" width="64" height="64"/>
  <object id="281" x="2048" y="1408" width="64" height="64"/>
  <object id="282" x="2048" y="1472" width="64" height="64"/>
  <object id="283" x="2048" y="1536" width="64" height="64"/>
  <object id="284" x="1984" y="1536" width="64" height="64"/>
  <object id="285" x="1920" y="1536" width="64" height="64"/>
  <object id="286" x="1856" y="1536" width="64" height="64"/>
  <object id="287" x="1792" y="1536" width="64" height="64"/>
  <object id="288" x="1728" y="1536" width="64" height="64"/>
  <object id="289" x="1728" y="1600" width="64" height="64"/>
  <object id="290" x="1728" y="1664" width="64" height="64"/>
  <object id="291" x="1728" y="1728" width="64" height="64"/>
  <object id="292" x="1728" y="1792" width="64" height="64"/>
  <object id="293" x="1792" y="1792" width="64" height="64"/>
  <object id="294" x="1856" y="1792" width="64" height="64"/>
  <object id="295" x="1920" y="1792" width="64" height="64"/>
  <object id="296" x="1984" y="1792" width="64" height="64"/>
  <object id="297" x="2048" y="1792" width="64" height="64"/>
  <object id="298" name="door" x="2112" y="1792" width="64" height="64">
   <properties>
    <property name="direction" type="int" value="2"/>
    <property name="offset" type="int" value="1"/>
   </properties>
  </object>
 </objectgroup>
 <objectgroup id="11" name="room9">
  <object id="243" x="320" y="1984" width="64" height="64"/>
  <object id="244" x="384" y="1984" width="64" height="64"/>
  <object id="245" name="bed" x="448" y="1984" width="64" height="64"/>
  <object id="246" x="512" y="1984" width="64" height="64"/>
  <object id="247" x="576" y="1984" width="64" height="64"/>
  <object id="248" x="640" y="1984" width="64" height="64"/>
  <object id="249" x="704" y="1984" width="64" height="64"/>
  <object id="250" x="768" y="1984" width="64" height="64"/>
  <object id="251" x="832" y="1984" width="64" height="64"/>
  <object id="252" x="896" y="1984" width="64" height="64"/>
  <object id="253" x="960" y="1984" width="64" height="64"/>
  <object id="254" x="1024" y="1984" width="64" height="64"/>
  <object id="255" x="1088" y="1984" width="64" height="64"/>
  <object id="256" x="1152" y="1984" width="64" height="64"/>
  <object id="257" x="1152" y="2048" width="64" height="64"/>
  <object id="258" x="1152" y="2112" width="64" height="64"/>
  <object id="259" x="1088" y="2112" width="64" height="64"/>
  <object id="260" x="1024" y="2112" width="64" height="64"/>
  <object id="261" x="960" y="2112" width="64" height="64"/>
  <object id="262" x="896" y="2112" width="64" height="64"/>
  <object id="263" x="832" y="2112" width="64" height="64"/>
  <object id="264" x="768" y="2112" width="64" height="64"/>
  <object id="265" x="704" y="2112" width="64" height="64"/>
  <object id="266" x="640" y="2112" width="64" height="64"/>
  <object id="267" x="576" y="2112" width="64" height="64"/>
  <object id="268" x="512" y="2112" width="64" height="64"/>
  <object id="269" x="448" y="2112" width="64" height="64"/>
  <object id="270" x="384" y="2112" width="64" height="64"/>
  <object id="271" x="320" y="2112" width="64" height="64"/>
  <object id="272" name="door" x="256" y="2112" width="64" height="64">
   <properties>
    <property name="direction" type="int" value="3"/>
    <property name="offset" type="int" value="1"/>
   </properties>
  </object>
 </objectgroup>
 <objectgroup id="10" name="room8">
  <object id="221" name="door" x="320" y="1344" width="64" height="64">
   <properties>
    <property name="direction" type="int" value="1"/>
    <property name="offset" type="int" value="2"/>
   </properties>
  </object>
  <object id="222" x="320" y="1408" width="64" height="64"/>
  <object id="223" x="384" y="1408" width="64" height="64"/>
  <object id="224" x="448" y="1408" width="64" height="64"/>
  <object id="225" x="512" y="1408" width="64" height="64"/>
  <object id="226" x="576" y="1408" width="64" height="64"/>
  <object id="227" x="320" y="1472" width="64" height="64"/>
  <object id="228" x="384" y="1472" width="64" height="64"/>
  <object id="229" x="448" y="1472" width="64" height="64"/>
  <object id="230" x="512" y="1472" width="64" height="64"/>
  <object id="231" x="576" y="1472" width="64" height="64"/>
  <object id="232" x="320" y="1536" width="64" height="64"/>
  <object id="233" x="384" y="1536" width="64" height="64"/>
  <object id="234" name="bed" x="448" y="1536" width="64" height="64"/>
  <object id="236" x="512" y="1536" width="64" height="64"/>
  <object id="237" x="576" y="1536" width="64" height="64"/>
  <object id="238" x="320" y="1600" width="64" height="64"/>
  <object id="239" x="384" y="1600" width="64" height="64"/>
  <object id="240" x="448" y="1600" width="64" height="64"/>
  <object id="241" x="512" y="1600" width="64" height="64"/>
  <object id="242" x="576" y="1600" width="64" height="64"/>
 </objectgroup>
 <objectgroup id="9" name="room7">
  <object id="209" x="320" y="896" width="64" height="64"/>
  <object id="210" x="384" y="896" width="64" height="64"/>
  <object id="211" x="448" y="896" width="64" height="64"/>
  <object id="212" name="bed" x="512" y="896" width="64" height="64"/>
  <object id="213" x="576" y="896" width="64" height="64"/>
  <object id="214" x="320" y="960" width="64" height="64"/>
  <object id="215" x="320" y="1024" width="64" height="64"/>
  <object id="216" x="384" y="1024" width="64" height="64"/>
  <object id="217" x="448" y="1024" width="64" height="64"/>
  <object id="218" x="512" y="1024" width="64" height="64"/>
  <object id="219" x="576" y="1024" width="64" height="64"/>
  <object id="220" name="door" x="640" y="1024" width="64" height="64">
   <properties>
    <property name="direction" type="int" value="2"/>
    <property name="offset" type="int" value="1"/>
   </properties>
  </object>
 </objectgroup>
 <objectgroup id="8" name="room6">
  <object id="185" name="door" x="320" y="640" width="64" height="64">
   <properties>
    <property name="direction" type="int" value="0"/>
    <property name="offset" type="int" value="2"/>
   </properties>
  </object>
  <object id="186" x="320" y="576" width="64" height="64"/>
  <object id="187" x="320" y="512" width="64" height="64"/>
  <object id="188" x="320" y="448" width="64" height="64"/>
  <object id="189" x="320" y="384" width="64" height="64"/>
  <object id="190" x="320" y="320" width="64" height="64"/>
  <object id="191" x="384" y="320" width="64" height="64"/>
  <object id="192" x="384" y="384" width="64" height="64"/>
  <object id="193" x="448" y="320" width="64" height="64"/>
  <object id="194" x="512" y="320" width="64" height="64"/>
  <object id="195" x="576" y="320" width="64" height="64"/>
  <object id="196" x="576" y="384" width="64" height="64"/>
  <object id="197" x="576" y="448" width="64" height="64"/>
  <object id="198" x="512" y="384" width="64" height="64"/>
  <object id="199" x="448" y="384" width="64" height="64"/>
  <object id="200" x="448" y="448" width="64" height="64"/>
  <object id="201" x="512" y="448" width="64" height="64"/>
  <object id="202" x="576" y="512" width="64" height="64"/>
  <object id="203" name="bed" x="512" y="512" width="64" height="64"/>
  <object id="204" x="448" y="512" width="64" height="64"/>
  <object id="205" x="448" y="576" width="64" height="64"/>
  <object id="206" x="512" y="576" width="64" height="64"/>
  <object id="208" x="576" y="576" width="64" height="64"/>
 </objectgroup>
 <objectgroup id="7" name="room5">
  <object id="149" x="1024" y="448" width="64" height="64"/>
  <object id="150" x="1088" y="448" width="64" height="64"/>
  <object id="151" name="bed" x="1152" y="448" width="64" height="64"/>
  <object id="152" x="1216" y="448" width="64" height="64"/>
  <object id="153" x="1280" y="448" width="64" height="64"/>
  <object id="154" x="1344" y="448" width="64" height="64"/>
  <object id="155" x="1408" y="448" width="64" height="64"/>
  <object id="156" x="1472" y="448" width="64" height="64"/>
  <object id="157" x="1536" y="448" width="64" height="64"/>
  <object id="158" x="1600" y="448" width="64" height="64"/>
  <object id="159" x="1664" y="448" width="64" height="64"/>
  <object id="160" x="1728" y="448" width="64" height="64"/>
  <object id="161" x="1792" y="448" width="64" height="64"/>
  <object id="162" x="1856" y="448" width="64" height="64"/>
  <object id="163" x="1920" y="448" width="64" height="64"/>
  <object id="165" x="1984" y="448" width="64" height="64"/>
  <object id="166" x="1984" y="512" width="64" height="64"/>
  <object id="167" x="1984" y="576" width="64" height="64"/>
  <object id="168" x="1984" y="640" width="64" height="64"/>
  <object id="169" x="1984" y="704" width="64" height="64"/>
  <object id="170" x="1984" y="768" width="64" height="64"/>
  <object id="171" x="1984" y="832" width="64" height="64"/>
  <object id="173" x="1984" y="896" width="64" height="64"/>
  <object id="174" x="1984" y="960" width="64" height="64"/>
  <object id="175" x="1920" y="960" width="64" height="64"/>
  <object id="176" x="1856" y="960" width="64" height="64"/>
  <object id="177" x="1792" y="960" width="64" height="64"/>
  <object id="178" x="1728" y="960" width="64" height="64"/>
  <object id="179" x="1664" y="960" width="64" height="64"/>
  <object id="180" name="door" x="1600" y="960" width="64" height="64">
   <properties>
    <property name="direction" type="int" value="3"/>
    <property name="offset" type="int" value="1"/>
   </properties>
  </object>
 </objectgroup>
 <objectgroup id="6" name="room4">
  <object id="85" x="1024" y="320" width="64" height="64"/>
  <object id="86" x="1088" y="320" width="64" height="64"/>
  <object id="87" name="bed" x="1152" y="320" width="64" height="64"/>
  <object id="88" x="1216" y="320" width="64" height="64"/>
  <object id="89" x="1280" y="320" width="64" height="64"/>
  <object id="90" x="1344" y="320" width="64" height="64"/>
  <object id="91" x="1408" y="320" width="64" height="64"/>
  <object id="92" x="1472" y="320" width="64" height="64"/>
  <object id="93" x="1536" y="320" width="64" height="64"/>
  <object id="94" x="1600" y="320" width="64" height="64"/>
  <object id="95" x="1664" y="320" width="64" height="64"/>
  <object id="96" x="1728" y="320" width="64" height="64"/>
  <object id="97" x="1792" y="320" width="64" height="64"/>
  <object id="98" x="1856" y="320" width="64" height="64"/>
  <object id="99" x="1920" y="320" width="64" height="64"/>
  <object id="100" x="1984" y="320" width="64" height="64"/>
  <object id="101" x="2048" y="320" width="64" height="64"/>
  <object id="102" x="2112" y="320" width="64" height="64"/>
  <object id="103" x="2112" y="384" width="64" height="64"/>
  <object id="104" x="2112" y="448" width="64" height="64"/>
  <object id="105" x="2112" y="512" width="64" height="64"/>
  <object id="106" x="2112" y="576" width="64" height="64"/>
  <object id="107" x="2112" y="640" width="64" height="64"/>
  <object id="108" x="2112" y="704" width="64" height="64"/>
  <object id="109" x="2112" y="768" width="64" height="64"/>
  <object id="110" x="2112" y="832" width="64" height="64"/>
  <object id="111" x="2112" y="896" width="64" height="64"/>
  <object id="112" x="2112" y="960" width="64" height="64"/>
  <object id="113" name="door" x="2112" y="1024" width="64" height="64">
   <properties>
    <property name="direction" type="int" value="0"/>
    <property name="offset" type="int" value="3"/>
   </properties>
  </object>
 </objectgroup>
 <objectgroup id="5" name="room3">
  <object id="54" name="door" x="1600" y="576" width="64" height="64">
   <properties>
    <property name="direction" type="int" value="3"/>
    <property name="offset" type="int" value="1"/>
   </properties>
  </object>
  <object id="55" x="1664" y="576" width="64" height="64"/>
  <object id="56" x="1728" y="576" width="64" height="64"/>
  <object id="57" x="1792" y="576" width="64" height="64"/>
  <object id="58" x="1856" y="576" width="64" height="64"/>
  <object id="59" x="1664" y="640" width="64" height="64"/>
  <object id="60" x="1728" y="640" width="64" height="64"/>
  <object id="61" x="1792" y="640" width="64" height="64"/>
  <object id="62" x="1856" y="640" width="64" height="64"/>
  <object id="64" x="1728" y="704" width="64" height="64"/>
  <object id="63" x="1664" y="704" width="64" height="64"/>
  <object id="65" x="1792" y="704" width="64" height="64"/>
  <object id="66" x="1856" y="704" width="64" height="64"/>
  <object id="67" x="1664" y="768" width="64" height="64"/>
  <object id="68" x="1728" y="768" width="64" height="64"/>
  <object id="69" name="bed" x="1792" y="768" width="64" height="64"/>
  <object id="70" x="1856" y="768" width="64" height="64"/>
  <object id="71" x="1664" y="832" width="64" height="64"/>
  <object id="72" x="1728" y="832" width="64" height="64"/>
  <object id="73" x="1792" y="832" width="64" height="64"/>
  <object id="74" x="1856" y="832" width="64" height="64"/>
 </objectgroup>
 <objectgroup id="4" name="room2">
  <object id="19" x="1024" y="1408" width="64" height="64"/>
  <object id="20" x="1088" y="1408" width="64" height="64"/>
  <object id="21" x="1024" y="1472" width="64" height="64"/>
  <object id="22" x="1088" y="1472" width="64" height="64"/>
  <object id="23" x="1024" y="1536" width="64" height="64"/>
  <object id="24" x="1088" y="1536" width="64" height="64"/>
  <object id="25" x="1152" y="1536" width="64" height="64"/>
  <object id="26" x="1024" y="1600" width="64" height="64"/>
  <object id="27" x="1088" y="1600" width="64" height="64"/>
  <object id="28" x="1152" y="1600" width="64" height="64"/>
  <object id="29" x="1216" y="1536" width="64" height="64"/>
  <object id="30" name="door" x="1280" y="1472" width="64" height="64">
   <properties>
    <property name="direction" type="int" value="1"/>
    <property name="offset" type="int" value="2"/>
   </properties>
  </object>
  <object id="31" x="1280" y="1536" width="64" height="64"/>
  <object id="32" x="1216" y="1600" width="64" height="64"/>
  <object id="33" x="1280" y="1600" width="64" height="64"/>
  <object id="34" x="1344" y="1536" width="64" height="64"/>
  <object id="35" x="1344" y="1600" width="64" height="64"/>
  <object id="36" x="1408" y="1600" width="64" height="64"/>
  <object id="37" x="1408" y="1536" width="64" height="64"/>
  <object id="38" x="1408" y="1472" width="64" height="64"/>
  <object id="39" x="1408" y="1408" width="64" height="64"/>
  <object id="40" x="1472" y="1408" width="64" height="64"/>
  <object id="41" name="bed" x="1472" y="1472" width="64" height="64"/>
  <object id="42" x="1472" y="1536" width="64" height="64"/>
  <object id="43" x="1472" y="1600" width="64" height="64"/>
 </objectgroup>
 <objectgroup id="3" name="room1">
  <object id="14" x="1344" y="704" width="64" height="64"/>
  <object id="15" name="bed" x="1344" y="768" width="64" height="64"/>
  <object id="16" x="1344" y="832" width="64" height="64"/>
  <object id="17" x="1344" y="896" width="64" height="64"/>
  <object id="18" name="door" x="1344" y="960" width="64" height="64">
   <properties>
    <property name="direction" type="int" value="0"/>
    <property name="offset" type="int" value="2"/>
   </properties>
  </object>
 </objectgroup>
</map>
