<?xml version="1.0" encoding="UTF-8"?>
<map version="1.4" tiledversion="1.4.3" orientation="orthogonal" renderorder="right-down" width="40" height="40" tilewidth="64" tileheight="64" infinite="0" nextlayerid="13" nextobjectid="296">
 <tileset firstgid="1" source="../set/map1.tsx"/>
 <layer id="1" name="map" width="40" height="40">
  <data encoding="csv">
0,0,0,0,0,0,0,0,0,0,0,0,0,0,0,0,0,0,1,2,3,0,0,0,0,0,0,0,0,0,0,0,0,0,0,0,0,0,0,0,
0,1,2,2,2,2,2,2,2,2,2,2,2,2,2,2,2,2,10,14,9,2,2,2,2,2,2,2,2,2,2,2,2,2,2,2,2,2,3,0,
0,6,14,14,14,14,14,14,14,14,14,14,14,14,14,14,14,14,14,14,14,14,14,14,14,14,14,14,14,14,14,14,14,14,14,14,14,14,8,0,
0,6,14,14,14,14,14,14,14,14,14,14,14,14,14,14,14,14,14,14,14,14,14,14,14,14,14,14,14,14,14,14,14,14,14,14,14,14,8,0,
0,6,14,14,14,1,2,2,2,2,3,14,1,2,3,14,14,1,2,2,2,2,2,2,3,14,14,14,14,14,14,14,14,14,14,14,14,14,8,0,
0,6,14,14,14,6,7,7,7,7,9,7,10,7,8,14,14,7,7,7,7,7,7,7,8,14,14,1,7,3,14,14,14,1,2,3,14,14,8,0,
0,6,14,14,14,6,7,7,7,7,7,7,7,7,8,14,14,6,7,7,7,7,7,7,8,14,14,6,7,8,14,14,14,6,7,8,14,14,8,0,
0,6,14,14,14,11,12,12,12,12,12,12,12,12,13,14,14,11,12,12,12,12,12,12,13,14,1,10,7,9,3,14,14,6,7,8,14,14,8,0,
0,6,14,14,14,14,14,14,14,14,14,14,14,14,14,14,14,14,14,14,14,14,14,14,14,14,6,7,7,7,8,14,14,6,7,8,14,14,8,0,
0,6,14,14,14,14,14,14,14,14,14,14,14,14,14,14,14,14,14,14,14,14,14,14,14,14,6,7,7,7,8,14,14,6,7,8,14,14,8,0,
0,6,14,14,14,1,7,3,14,14,14,14,14,1,2,2,2,2,2,2,3,14,14,14,14,14,6,7,7,7,8,14,14,6,7,8,14,14,8,0,
0,6,14,14,14,6,7,8,14,14,14,14,14,6,7,7,7,7,7,7,8,14,14,14,14,14,6,7,7,7,8,14,14,6,7,8,14,14,8,0,
0,6,14,14,14,6,7,9,3,14,14,14,14,6,7,7,7,7,7,7,8,14,14,14,14,14,6,7,7,7,8,14,14,6,7,8,14,14,8,0,
0,6,14,14,14,6,7,7,8,14,14,14,14,6,7,7,7,7,7,7,8,14,14,14,14,14,6,7,7,7,8,14,14,6,7,8,14,14,8,0,
0,6,14,14,14,6,7,7,8,14,14,14,14,6,7,7,7,7,7,7,8,14,14,14,14,14,11,12,12,12,13,14,14,6,7,8,14,14,8,0,
1,10,14,14,1,10,7,7,9,3,14,14,14,6,7,7,7,7,7,7,8,14,14,14,14,14,14,14,14,14,14,14,14,6,7,8,14,14,9,3,
6,14,14,14,6,7,7,7,7,8,14,14,14,6,7,7,7,7,7,7,8,14,14,14,14,14,14,14,14,14,14,14,14,6,7,8,14,14,14,8,
11,5,14,14,6,7,7,7,7,8,14,14,14,11,12,12,12,12,12,7,13,14,14,14,14,14,14,14,14,14,14,14,14,6,7,8,14,14,4,13,
0,6,14,14,6,7,7,7,7,8,14,14,14,14,14,14,14,14,14,14,14,14,14,14,14,14,7,7,7,14,14,14,14,6,7,8,14,14,8,0,
0,6,14,14,6,7,7,7,7,8,14,14,14,14,14,14,14,14,14,14,14,14,14,14,14,14,7,7,7,14,14,14,14,6,7,8,14,14,8,0,
0,6,14,14,6,7,7,7,7,8,14,14,1,3,1,2,2,7,2,2,3,1,2,3,14,14,7,7,7,14,14,14,14,6,7,8,14,14,8,0,
0,6,14,14,11,12,12,12,12,13,14,14,6,8,6,7,7,7,7,7,8,6,7,8,14,14,14,14,14,14,14,14,14,6,7,8,14,14,8,0,
0,6,14,14,14,14,14,14,14,14,14,14,6,8,6,7,7,7,7,7,8,6,7,8,14,14,14,14,14,14,14,14,14,11,7,13,14,14,8,0,
0,6,14,14,14,14,14,14,14,1,2,2,10,9,10,7,7,7,7,7,9,10,7,8,14,14,14,14,14,14,14,14,14,14,14,14,14,14,8,0,
0,6,14,14,14,14,14,14,14,6,7,7,7,7,7,7,7,7,7,7,7,7,7,8,14,14,14,14,14,14,14,14,14,14,14,14,14,14,8,0,
0,6,14,14,14,14,14,14,14,11,12,12,12,12,12,12,12,12,12,12,12,12,12,13,14,14,14,14,14,14,14,14,14,14,14,14,14,14,8,0,
0,6,14,14,1,7,3,14,14,14,14,14,14,14,14,14,14,14,14,14,14,14,14,14,14,1,2,3,14,1,2,2,2,2,3,14,14,14,8,0,
0,6,14,14,6,7,8,14,14,14,14,14,14,14,14,14,14,14,14,14,14,14,14,14,14,6,7,8,14,7,7,7,7,7,8,14,14,14,8,0,
0,6,14,14,6,7,9,2,2,2,2,3,14,14,1,2,7,2,3,14,14,14,14,14,14,6,7,9,2,10,7,7,7,7,8,14,14,14,8,0,
0,6,14,14,6,7,7,7,7,7,7,8,14,14,6,7,7,7,8,14,14,14,14,14,14,6,7,7,7,7,7,7,7,7,8,14,14,14,8,0,
0,6,14,14,11,12,12,12,12,5,7,8,14,14,6,7,7,7,8,14,14,14,14,14,14,11,12,5,7,4,12,12,12,12,13,14,14,14,8,0,
0,6,14,14,1,2,2,2,2,10,7,8,14,14,6,7,7,7,8,14,14,14,14,14,14,14,14,6,7,8,14,14,14,14,14,14,14,14,8,0,
0,6,14,14,6,7,7,7,7,7,7,8,14,14,6,7,7,7,9,2,2,2,2,3,14,14,14,11,12,13,14,14,14,14,14,14,14,14,8,0,
0,6,14,14,6,7,2,2,2,2,2,3,14,14,6,7,7,7,7,7,7,7,7,8,14,14,14,14,14,14,14,14,14,14,14,14,14,14,8,0,
0,6,14,14,6,7,7,7,7,7,7,8,14,14,6,7,7,7,7,7,7,7,7,8,14,14,14,14,14,14,14,14,14,14,14,14,14,14,8,0,
0,6,14,14,11,12,12,12,12,12,12,13,14,14,11,12,12,12,12,12,12,12,12,13,14,14,14,14,14,14,14,14,14,14,14,14,14,14,8,0,
0,6,14,14,14,14,14,14,14,14,14,14,14,14,14,14,14,14,14,14,14,14,14,14,14,14,14,14,14,14,14,14,14,14,14,14,14,14,8,0,
0,6,14,14,14,14,14,14,14,14,14,14,14,14,14,14,14,14,14,14,14,14,14,14,14,14,14,14,14,14,14,14,14,14,14,14,14,14,8,0,
0,11,12,12,12,12,12,12,12,12,12,12,12,12,12,12,12,12,12,5,14,4,12,12,12,12,12,12,12,12,12,12,12,12,12,12,12,12,13,0,
0,0,0,0,0,0,0,0,0,0,0,0,0,0,0,0,0,0,0,11,12,13,0,0,0,0,0,0,0,0,0,0,0,0,0,0,0,0,0,0
</data>
 </layer>
 <objectgroup id="2" name="obj">
  <object id="1" name="出生点" x="1664" y="1152" width="64" height="64">
   <properties>
    <property name="born" type="bool" value="true"/>
   </properties>
  </object>
  <object id="2" name="出生点" x="1728" y="1152" width="64" height="64">
   <properties>
    <property name="born" type="bool" value="true"/>
   </properties>
  </object>
  <object id="3" name="出生点" x="1792" y="1152" width="64" height="64">
   <properties>
    <property name="born" type="bool" value="true"/>
   </properties>
  </object>
  <object id="4" name="出生点" x="1664" y="1216" width="64" height="64">
   <properties>
    <property name="born" type="bool" value="true"/>
   </properties>
  </object>
  <object id="5" name="出生点" x="1728" y="1216" width="64" height="64" visible="0">
   <properties>
    <property name="born" type="bool" value="true"/>
   </properties>
  </object>
  <object id="6" name="出生点" x="1792" y="1216" width="64" height="64">
   <properties>
    <property name="born" type="bool" value="true"/>
   </properties>
  </object>
  <object id="7" name="出生点" x="1664" y="1280" width="64" height="64">
   <properties>
    <property name="born" type="bool" value="true"/>
   </properties>
  </object>
  <object id="8" name="出生点" x="1728" y="1280" width="64" height="64">
   <properties>
    <property name="born" type="bool" value="true"/>
   </properties>
  </object>
  <object id="9" name="出生点" x="1792" y="1280" width="64" height="64">
   <properties>
    <property name="born" type="bool" value="true"/>
   </properties>
  </object>
  <object id="10" name="随机道具 " x="1920" y="1152" width="64" height="64">
   <properties>
    <property name="randomProps" type="bool" value="true"/>
   </properties>
  </object>
  <object id="11" name="随机道具" x="1792" y="1024" width="64" height="64">
   <properties>
    <property name="randomProps" type="bool" value="true"/>
   </properties>
  </object>
  <object id="12" name="随机道具" x="1536" y="1088" width="64" height="64">
   <properties>
    <property name="randomProps" type="bool" value="true"/>
   </properties>
  </object>
  <object id="13" name="随机道具" x="1600" y="1408" width="64" height="64">
   <properties>
    <property name="randomProps" type="bool" value="true"/>
   </properties>
  </object>
  <object id="14" name="随机道具" x="1856" y="1408" width="64" height="64">
   <properties>
    <property name="randomProps" type="bool" value="true"/>
   </properties>
  </object>
  <object id="15" name="boss复活" x="2432" y="1024" width="64" height="64">
   <properties>
    <property name="monsterBorn" type="bool" value="true"/>
   </properties>
  </object>
  <object id="16" name="boss复活" x="1216" y="64" width="64" height="64"/>
  <object id="17" name="boss复活" x="64" y="1024" width="64" height="64"/>
  <object id="18" name="boss复活" x="1280" y="2432" width="64" height="64"/>
 </objectgroup>
 <objectgroup id="11" name="room9">
  <object id="241" name="door" x="1024" y="1792" width="64" height="64">
   <properties>
    <property name="direction" type="int" value="0"/>
    <property name="offset" type="int" value="2"/>
   </properties>
  </object>
  <object id="242" x="960" y="1856" width="64" height="64"/>
  <object id="243" x="1024" y="1856" width="64" height="64"/>
  <object id="244" x="1088" y="1856" width="64" height="64"/>
  <object id="245" x="960" y="1920" width="64" height="64"/>
  <object id="246" x="1024" y="1920" width="64" height="64"/>
  <object id="247" x="1088" y="1920" width="64" height="64"/>
  <object id="248" x="960" y="1984" width="64" height="64"/>
  <object id="249" x="1024" y="1984" width="64" height="64"/>
  <object id="250" x="1088" y="1984" width="64" height="64"/>
  <object id="251" x="960" y="2048" width="64" height="64"/>
  <object id="253" x="1024" y="2048" width="64" height="64"/>
  <object id="254" x="1088" y="2048" width="64" height="64"/>
  <object id="255" x="960" y="2112" width="64" height="64"/>
  <object id="256" x="1024" y="2112" width="64" height="64"/>
  <object id="257" x="1088" y="2112" width="64" height="64"/>
  <object id="258" x="1152" y="2112" width="64" height="64"/>
  <object id="259" x="1216" y="2112" width="64" height="64"/>
  <object id="260" x="1280" y="2112" width="64" height="64"/>
  <object id="261" x="1344" y="2112" width="64" height="64"/>
  <object id="262" x="1408" y="2112" width="64" height="64"/>
  <object id="263" x="960" y="2176" width="64" height="64"/>
  <object id="264" x="1024" y="2176" width="64" height="64"/>
  <object id="265" x="1088" y="2176" width="64" height="64"/>
  <object id="266" x="1152" y="2176" width="64" height="64"/>
  <object id="267" x="1216" y="2176" width="64" height="64"/>
  <object id="268" name="bed" x="1280" y="2176" width="64" height="64"/>
  <object id="269" x="1344" y="2176" width="64" height="64"/>
  <object id="270" x="1408" y="2176" width="64" height="64"/>
 </objectgroup>
 <objectgroup id="12" name="room10">
  <object id="271" name="door" x="320" y="1664" width="64" height="64">
   <properties>
    <property name="direction" type="int" value="1"/>
    <property name="offset" type="int" value="2"/>
   </properties>
  </object>
  <object id="272" x="320" y="1728" width="64" height="64"/>
  <object id="273" x="320" y="1792" width="64" height="64"/>
  <object id="274" x="320" y="1856" width="64" height="64"/>
  <object id="275" x="384" y="1856" width="64" height="64"/>
  <object id="276" x="448" y="1856" width="64" height="64"/>
  <object id="277" x="512" y="1856" width="64" height="64"/>
  <object id="278" x="576" y="1856" width="64" height="64"/>
  <object id="279" x="640" y="1856" width="64" height="64"/>
  <object id="280" x="640" y="1920" width="64" height="64"/>
  <object id="281" x="640" y="1984" width="64" height="64"/>
  <object id="282" x="640" y="2048" width="64" height="64"/>
  <object id="283" x="576" y="2048" width="64" height="64"/>
  <object id="284" x="512" y="2048" width="64" height="64"/>
  <object id="286" x="448" y="2048" width="64" height="64"/>
  <object id="287" x="384" y="2048" width="64" height="64"/>
  <object id="288" x="320" y="2048" width="64" height="64"/>
  <object id="289" x="320" y="2112" width="64" height="64"/>
  <object id="290" x="320" y="2176" width="64" height="64"/>
  <object id="291" x="384" y="2176" width="64" height="64"/>
  <object id="292" x="448" y="2176" width="64" height="64"/>
  <object id="293" name="bed" x="512" y="2176" width="64" height="64"/>
  <object id="294" x="576" y="2176" width="64" height="64"/>
  <object id="295" x="640" y="2176" width="64" height="64"/>
 </objectgroup>
 <objectgroup id="10" name="room8">
  <object id="217" x="1664" y="1728" width="64" height="64"/>
  <object id="218" x="1664" y="1792" width="64" height="64"/>
  <object id="219" x="1664" y="1856" width="64" height="64"/>
  <object id="221" x="1728" y="1856" width="64" height="64"/>
  <object id="222" x="1792" y="1856" width="64" height="64"/>
  <object id="223" x="1792" y="1920" width="64" height="64"/>
  <object id="224" x="1792" y="1984" width="64" height="64"/>
  <object id="225" x="1856" y="1856" width="64" height="64"/>
  <object id="226" x="1920" y="1856" width="64" height="64"/>
  <object id="227" x="1984" y="1856" width="64" height="64"/>
  <object id="228" x="2048" y="1856" width="64" height="64"/>
  <object id="231" x="2112" y="1856" width="64" height="64"/>
  <object id="232" x="1920" y="1792" width="64" height="64"/>
  <object id="233" x="1984" y="1792" width="64" height="64"/>
  <object id="234" name="bed" x="2048" y="1792" width="64" height="64"/>
  <object id="235" x="2112" y="1792" width="64" height="64"/>
  <object id="236" x="1920" y="1728" width="64" height="64"/>
  <object id="237" x="1984" y="1728" width="64" height="64"/>
  <object id="238" x="2048" y="1728" width="64" height="64"/>
  <object id="239" x="2112" y="1728" width="64" height="64"/>
  <object id="240" name="door" x="1856" y="1728" width="64" height="64">
   <properties>
    <property name="direction" type="int" value="3"/>
    <property name="offset" type="int" value="1"/>
   </properties>
  </object>
 </objectgroup>
 <objectgroup id="9" name="room7">
  <object id="183" name="door" x="1088" y="1280" width="64" height="64">
   <properties>
    <property name="direction" type="int" value="1"/>
    <property name="offset" type="int" value="2"/>
   </properties>
  </object>
  <object id="184" x="960" y="1344" width="64" height="64"/>
  <object id="185" x="1024" y="1344" width="64" height="64"/>
  <object id="186" x="1088" y="1344" width="64" height="64"/>
  <object id="187" x="1152" y="1344" width="64" height="64"/>
  <object id="188" x="1216" y="1344" width="64" height="64"/>
  <object id="189" x="1216" y="1408" width="64" height="64"/>
  <object id="190" x="1152" y="1408" width="64" height="64"/>
  <object id="191" x="1088" y="1408" width="64" height="64"/>
  <object id="192" x="1024" y="1408" width="64" height="64"/>
  <object id="193" x="960" y="1408" width="64" height="64"/>
  <object id="194" x="960" y="1472" width="64" height="64"/>
  <object id="195" x="1024" y="1472" width="64" height="64"/>
  <object id="196" x="1088" y="1472" width="64" height="64"/>
  <object id="197" x="1152" y="1472" width="64" height="64"/>
  <object id="198" x="1216" y="1472" width="64" height="64"/>
  <object id="199" x="1408" y="1344" width="64" height="64"/>
  <object id="200" x="1408" y="1408" width="64" height="64"/>
  <object id="201" x="1408" y="1472" width="64" height="64"/>
  <object id="202" x="1408" y="1536" width="64" height="64"/>
  <object id="204" x="1344" y="1536" width="64" height="64"/>
  <object id="205" x="1280" y="1536" width="64" height="64"/>
  <object id="206" x="1216" y="1536" width="64" height="64"/>
  <object id="207" x="1152" y="1536" width="64" height="64"/>
  <object id="208" name="bed" x="1088" y="1536" width="64" height="64"/>
  <object id="209" x="1024" y="1536" width="64" height="64"/>
  <object id="210" x="960" y="1536" width="64" height="64"/>
  <object id="212" x="896" y="1536" width="64" height="64"/>
  <object id="213" x="832" y="1536" width="64" height="64"/>
  <object id="214" x="768" y="1536" width="64" height="64"/>
  <object id="215" x="704" y="1536" width="64" height="64"/>
  <object id="216" x="640" y="1536" width="64" height="64"/>
 </objectgroup>
 <objectgroup id="8" name="room6">
  <object id="152" name="door" x="384" y="640" width="64" height="64">
   <properties>
    <property name="direction" type="int" value="1"/>
    <property name="offset" type="int" value="2"/>
   </properties>
  </object>
  <object id="153" x="384" y="704" width="64" height="64"/>
  <object id="154" x="384" y="768" width="64" height="64"/>
  <object id="155" x="448" y="832" width="64" height="64"/>
  <object id="156" x="384" y="832" width="64" height="64"/>
  <object id="157" x="448" y="896" width="64" height="64"/>
  <object id="158" x="384" y="896" width="64" height="64"/>
  <object id="159" x="384" y="960" width="64" height="64"/>
  <object id="160" x="448" y="960" width="64" height="64"/>
  <object id="161" x="320" y="1024" width="64" height="64"/>
  <object id="162" x="384" y="1024" width="64" height="64"/>
  <object id="163" x="448" y="1024" width="64" height="64"/>
  <object id="164" x="512" y="1024" width="64" height="64"/>
  <object id="165" x="448" y="1088" width="64" height="64"/>
  <object id="166" x="512" y="1088" width="64" height="64"/>
  <object id="167" x="384" y="1088" width="64" height="64"/>
  <object id="168" x="320" y="1088" width="64" height="64"/>
  <object id="169" x="320" y="1152" width="64" height="64"/>
  <object id="170" x="384" y="1152" width="64" height="64"/>
  <object id="171" x="448" y="1152" width="64" height="64"/>
  <object id="172" x="512" y="1152" width="64" height="64"/>
  <object id="173" x="320" y="1216" width="64" height="64"/>
  <object id="174" name="bed" x="384" y="1216" width="64" height="64"/>
  <object id="175" x="448" y="1216" width="64" height="64"/>
  <object id="176" x="512" y="1216" width="64" height="64"/>
  <object id="177" x="512" y="1280" width="64" height="64"/>
  <object id="178" x="448" y="1280" width="64" height="64"/>
  <object id="179" x="384" y="1280" width="64" height="64"/>
  <object id="180" x="320" y="1280" width="64" height="64"/>
 </objectgroup>
 <objectgroup id="7" name="room5">
  <object id="97" x="896" y="704" width="64" height="64"/>
  <object id="98" x="960" y="704" width="64" height="64"/>
  <object id="99" x="1024" y="704" width="64" height="64"/>
  <object id="100" x="1088" y="704" width="64" height="64"/>
  <object id="101" x="1152" y="704" width="64" height="64"/>
  <object id="102" x="1216" y="704" width="64" height="64"/>
  <object id="103" x="896" y="768" width="64" height="64"/>
  <object id="104" name="bed" x="960" y="768" width="64" height="64"/>
  <object id="105" x="1024" y="768" width="64" height="64"/>
  <object id="106" x="1088" y="768" width="64" height="64"/>
  <object id="107" x="1152" y="768" width="64" height="64"/>
  <object id="108" x="1216" y="768" width="64" height="64"/>
  <object id="109" x="896" y="832" width="64" height="64"/>
  <object id="110" x="960" y="832" width="64" height="64"/>
  <object id="111" x="1024" y="832" width="64" height="64"/>
  <object id="112" x="1088" y="832" width="64" height="64"/>
  <object id="113" x="1152" y="832" width="64" height="64"/>
  <object id="114" x="1216" y="832" width="64" height="64"/>
  <object id="115" x="896" y="896" width="64" height="64"/>
  <object id="116" x="960" y="896" width="64" height="64"/>
  <object id="117" x="1024" y="896" width="64" height="64"/>
  <object id="118" x="1088" y="896" width="64" height="64"/>
  <object id="119" x="1152" y="896" width="64" height="64"/>
  <object id="120" x="1216" y="896" width="64" height="64"/>
  <object id="121" x="896" y="960" width="64" height="64"/>
  <object id="122" x="960" y="960" width="64" height="64"/>
  <object id="123" x="1024" y="960" width="64" height="64"/>
  <object id="124" x="1088" y="960" width="64" height="64"/>
  <object id="125" x="1152" y="960" width="64" height="64"/>
  <object id="126" x="1216" y="960" width="64" height="64"/>
  <object id="127" x="896" y="1024" width="64" height="64"/>
  <object id="128" x="960" y="1024" width="64" height="64"/>
  <object id="129" x="1024" y="1024" width="64" height="64"/>
  <object id="130" x="1088" y="1024" width="64" height="64"/>
  <object id="131" x="1152" y="1024" width="64" height="64"/>
  <object id="132" x="1216" y="1024" width="64" height="64"/>
  <object id="133" name="door" x="1216" y="1088" width="64" height="64">
   <properties>
    <property name="direction" type="int" value="0"/>
    <property name="offset" type="int" value="2"/>
   </properties>
  </object>
 </objectgroup>
 <objectgroup id="6" name="room4">
  <object id="134" x="2176" y="384" width="64" height="64"/>
  <object id="135" x="2176" y="448" width="64" height="64"/>
  <object id="136" name="bed" x="2176" y="512" width="64" height="64"/>
  <object id="137" x="2176" y="576" width="64" height="64"/>
  <object id="138" x="2176" y="640" width="64" height="64"/>
  <object id="139" x="2176" y="704" width="64" height="64"/>
  <object id="140" x="2176" y="768" width="64" height="64"/>
  <object id="142" x="2176" y="832" width="64" height="64"/>
  <object id="143" x="2176" y="896" width="64" height="64"/>
  <object id="144" x="2176" y="960" width="64" height="64"/>
  <object id="145" x="2176" y="1024" width="64" height="64"/>
  <object id="146" x="2176" y="1088" width="64" height="64"/>
  <object id="147" x="2176" y="1152" width="64" height="64"/>
  <object id="148" x="2176" y="1216" width="64" height="64"/>
  <object id="149" x="2176" y="1280" width="64" height="64"/>
  <object id="150" x="2176" y="1344" width="64" height="64"/>
  <object id="151" name="door" x="2176" y="1408" width="64" height="64">
   <properties>
    <property name="direction" type="int" value="0"/>
    <property name="offset" type="int" value="2"/>
   </properties>
  </object>
 </objectgroup>
 <objectgroup id="5" name="room3">
  <object id="56" name="door" x="1792" y="320" width="64" height="64">
   <properties>
    <property name="direction" type="int" value="1"/>
    <property name="offset" type="int" value="2"/>
   </properties>
  </object>
  <object id="57" x="1792" y="384" width="64" height="64"/>
  <object id="58" x="1792" y="448" width="64" height="64"/>
  <object id="59" x="1728" y="512" width="64" height="64"/>
  <object id="60" x="1792" y="512" width="64" height="64"/>
  <object id="61" x="1856" y="512" width="64" height="64"/>
  <object id="64" x="1728" y="576" width="64" height="64"/>
  <object id="65" x="1792" y="576" width="64" height="64"/>
  <object id="66" x="1856" y="576" width="64" height="64"/>
  <object id="67" x="1728" y="640" width="64" height="64"/>
  <object id="68" x="1792" y="640" width="64" height="64"/>
  <object id="69" x="1856" y="640" width="64" height="64"/>
  <object id="71" x="1728" y="704" width="64" height="64"/>
  <object id="72" x="1792" y="704" width="64" height="64"/>
  <object id="73" x="1856" y="704" width="64" height="64"/>
  <object id="74" x="1856" y="768" width="64" height="64"/>
  <object id="75" name="bed" x="1792" y="768" width="64" height="64"/>
  <object id="76" x="1728" y="768" width="64" height="64"/>
  <object id="77" x="1728" y="832" width="64" height="64"/>
  <object id="78" x="1792" y="832" width="64" height="64"/>
  <object id="79" x="1856" y="832" width="64" height="64"/>
 </objectgroup>
 <objectgroup id="4" name="room2">
  <object id="33" name="door" x="1088" y="320" width="64" height="64">
   <properties>
    <property name="direction" type="int" value="3"/>
    <property name="offset" type="int" value="1"/>
   </properties>
  </object>
  <object id="34" x="1152" y="320" width="64" height="64"/>
  <object id="35" x="1216" y="320" width="64" height="64"/>
  <object id="36" x="1280" y="320" width="64" height="64"/>
  <object id="37" x="1344" y="320" width="64" height="64"/>
  <object id="38" x="1408" y="320" width="64" height="64"/>
  <object id="39" x="1472" y="320" width="64" height="64"/>
  <object id="40" x="1152" y="384" width="64" height="64"/>
  <object id="41" x="1216" y="384" width="64" height="64"/>
  <object id="42" x="1280" y="384" width="64" height="64"/>
  <object id="43" x="1344" y="384" width="64" height="64"/>
  <object id="44" name="bed" x="1408" y="384" width="64" height="64"/>
  <object id="45" x="1472" y="384" width="64" height="64"/>
 </objectgroup>
 <objectgroup id="3" name="room1">
  <object id="19" name="door" x="704" y="320" width="64" height="64">
   <properties>
    <property name="direction" type="int" value="1"/>
    <property name="offset" type="int" value="2"/>
   </properties>
  </object>
  <object id="20" x="832" y="320" width="64" height="64"/>
  <object id="21" x="832" y="384" width="64" height="64"/>
  <object id="22" x="768" y="384" width="64" height="64"/>
  <object id="23" x="704" y="384" width="64" height="64"/>
  <object id="24" x="640" y="384" width="64" height="64"/>
  <object id="25" x="576" y="320" width="64" height="64"/>
  <object id="26" x="576" y="384" width="64" height="64"/>
  <object id="27" x="512" y="320" width="64" height="64"/>
  <object id="28" x="512" y="384" width="64" height="64"/>
  <object id="29" x="448" y="320" width="64" height="64"/>
  <object id="30" name="bed" x="448" y="384" width="64" height="64"/>
  <object id="31" x="384" y="320" width="64" height="64"/>
  <object id="32" x="384" y="384" width="64" height="64"/>
 </objectgroup>
</map>
